!!!!SEGMENT: pl-cz--i-170--001_zebrowski-marcin-jozef--sonata-pro-processione-in-d.krn
!!!cenid: 17xx:2321
!!!COM: Żebrowski, Marcin Józef
!!!COM-rismID: pe30020322
!!!CDT: 1702-1770/06/29
!!!CNT: Polish
!!!OTL: Sonata pro processione in d
!!!PDT:
!!!AGN:
!!!SMS-siglum: PL-CZ
!!!SMS-shelfmark: I-170
!!!SMS-shelfwork: 001 W
!!!SMS-variant:
!!!SMS-altvar:
!!!NIFC-rismSourceID: 300033524
!!!NIFC-rismChildID: 300033525
!!!NIFC-islandoraID: pl-cz:997
!!!URL-pdf-islandora: https://repozytorium.nifc.pl/islandora/object/pl-cz%3A997/datastream/PDF/view
!!!URL-scan: https://polish.musicsources.pl/pl/lokalizacje/galeria/rekopisy/574 @EN{Scan on Polish Music Sources Website} @PL{Skany w portalu Dziedzictwo Muzyki Polskiej w otwartym dostępie}
!!!ONB-nifc: UWAGA: w zbiorze 2 Sonaty: 1. in d, 2. in Es. Nieprawidłowa kolejność stron dla głosów: ob 1, ob 2, vl 1, vl 2 - druga Sonata na stronie recto, pierwsza Sonata na stronie verso. Partia organów na skanie 0002 i 0009
!!!AIN: 1 cor 1 fagot 2 oboe 1 organ 2 violn
!!!key: d
**kern	**fba	**kern	**kern	**kern	**kern	**kern	**kern
*part7	*	*part6	*part5	*part4	*part3	*part2	*part1
*staff7	*	*staff6	*staff5	*staff4	*staff3	*staff2	*staff1
*IGcont	*	*IGripn	*IGripn	*IGripn	*IGripn	*IGripn	*IGripn
*ICklav	*	*ICstr	*ICstr	*ICbras	*ICww	*ICww	*ICww
*Iorgan	*	*Ivioln	*Ivioln	*Icor	*Ifagot	*Ioboe	*Ioboe
*I"Baſso Continuo.	*	*I"Violino Secondo.	*I"Violino Primo.	*I"Cornu Primo ex F toni cameralis	*I"Fagotto.	*I"Hoboe Secondo.	*I"Hoboe Primo.
*I'org	*	*I'vl 2	*I'vl 1	*I'cor 1	*I'fag	*I'ob 2	*I'ob 1
*clefF4	*	*clefG2	*clefG2	*clefG2	*clefF4	*clefG2	*clefG2
*	*	*	*	*ITrd4c7	*	*	*
*k[b-]	*	*k[b-]	*k[b-]	*k[b-]	*k[b-]	*k[b-]	*k[b-]
*d:	*	*d:	*d:	*d:	*d:	*d:	*d:
*M4/4	*	*M4/4	*M4/4	*M4/4	*M4/4	*M4/4	*M4/4
*met(c)	*	*met(c)	*met(c)	*met(c)	*met(c)	*met(c)	*met(c)
*2\right	*	*2\right	*2\right	*2\right	*2\right	*2\right	*2\right
!	!	!	!	!LO:TX:a:t=poco.:rj	!	!	!
!LO:TX:a:t=Anadante.\npoco.:rj	!	!LO:TX:a:t=Andante.\npoco.	!LO:TX:a:t=Andante.\npoco.	!LO:TX:a:t=Andante.:rj	!LO:TX:a:t=Andante.\npoco.	!LO:TX:a:t=Andante.\npoco.	!LO:TX:a:t=Andante.\npoco.
16.r	.	16.r	32d/LLL	16.r	16.r	16.r	32d/LLL
.	.	.	32f/	.	.	.	32f/
.	.	.	32a/JJJ	.	.	.	32a/JJJ
=1	=1	=1	=1	=1	=1	=1	=1
!	!	!LO:TX:t=[segno]	!LO:TX:a:t=P:mixedbeam:problem	!	!	!	!
!LO:TX:a:t=[segno]	!	!	!LO:TX:a:t=[segno]	!LO:TX:a:t=[segno]	!LO:TX:a:t=[segno]	!LO:TX:a:t=[segno]	!LO:TX:a:t=[segno]
4D/	.	4f/|<	8.dd\L	4a\	4D/	4f/|<	8.dd\L
.	.	.	16a/Jk	.	.	.	16a\Jk
4C#X/	6 5	4e/|<	8.a/L	8.a\L	4C#X/	4e/|<	8.a/L
.	.	.	16g/Jk	16a\Jk	.	.	16g/Jk
.	.	.	8qqg/	.	.	.	8qqg/
8.D\L	.	8.f/L	4f/	4a\	8.D\L	8.f/L	4f/
16E\K	.	16g/K	.	.	16E\K	16g/K	.
8.F\	x 6	8.a/	8r	4r	8.F\	8.a/	8r
.	.	.	32r	.	.	.	32r
.	.	.	32dd\LLL	.	.	.	32dd\LLL
16D\Jk	.	16f/Jk	32ee\	.	16D\Jk	16f/Jk	32ee\
.	.	.	32ff\JJJ	.	.	.	32ff\JJJ
=2	=2	=2	=2	=2	=2	=2	=2
!	!	!	!	!	!LO:TX:a:t=P:problem=mixedbeam	!	!
8.G\L	x 6	8.b-\L	8.ee\L	4r	8.G\L	8.b-\L	8.ee\L
16E\Jk	.	16ee\Jk	16gg\Jk	.	16E\K	16ee\Jk	16gg\Jk
!LO:TX:a:t=P:problem=mixedbeam	!	!	!LO:TX:a:t=t	!	!	!LO:TX:a:t=t.	!LO:TX:a:t=t.
.	.	8qqee/	8qqgg/	.	.	8qqee/	8qqgg/
8.A\L	6 4	8.dd\L	8.ff\L	8.a\L	8.A\	8.dd\L	8.ff\L
16AA/Jk	5 #	16cc#X\Jk	16ee\Jk	16a\Jk	16AA/Jk	16cc#X\Jk	16ee\Jk
.	.	.	8qqee/	.	.	8qqcc#/	8qqee/
4D\	.	[4dd\	4ff\	4a\	4D\	4dd\	4ff\
4r	.	16dd\LL]	4r	4r	4r	4r	4r
.	.	16cc#X\	.	.	.	.	.
.	.	16dd\	.	.	.	.	.
.	.	16ee\JJ	.	.	.	.	.
=3	=3	=3	=3	=3	=3	=3	=3
8r	.	16ff\	4r	2a\	8r	8r	2r
.	.	8ff\	.	.	.	.	.
8D\L	.	.	.	.	8D\L	8f/L	.
.	.	8ff\	.	.	.	.	.
8E\	.	.	16r	.	8E\	8g/	.
.	.	8ff\	16ff\LL	.	.	.	.
8F\J	x 6	.	16gg\	.	8F\J	8a/J	.
.	.	16ff\	16aa\JJ	.	.	.	.
8r	.	(16ff\LL	16bb-\	2b-\	8r	[2b-/	8r
.	.	16ee\)	8bb-\	.	.	.	.
8G\L	x 7	(16dd\	.	.	8G\L	.	8b-\L
.	.	16cc\JJ)	8bb-\	.	.	.	.
8A\	.	(16b-/LL	.	.	8A\	.	8cc\
.	.	16a/)	8bb-\	.	.	.	.
8B-\J	.	(16g/	.	.	8B-\J	.	8dd\J
.	.	16f/JJ)	16bb-\	.	.	.	.
=4	=4	=4	=4	=4	=4	=4	=4
8r	.	16e/	(16bb-\LL	2g\	8r	8b-/L]	[2ee\
.	.	8ee\	16aa\)	.	.	.	.
8C/L	x 7	.	(16gg\	.	8C\L	8e/	.
.	.	8ee\	16ff\JJ)	.	.	.	.
8D/	.	.	(16ee\LL	.	8D\	8f/	.
.	.	8ee\	16dd\)	.	.	.	.
8E/J	.	.	(16cc\	.	8E\J	8g/J	.
.	.	16ee\	16b-\JJ)	.	.	.	.
!	!	!	!	!	!	!	!LO:TX:a:t=P:problem=mixedbeam
8r	.	(16ee\LL	16a/	2a\	8r	[2a/	8ee\L]
.	.	16dd\)	8aa\	.	.	.	.
8F\L	x 7	(16cc\	.	.	8F\L	.	8a/
.	.	16b-\JJ)	8aa\	.	.	.	.
8G\	.	(16a/LL	.	.	8G\	.	8b-/
.	.	16g/)	8aa\	.	.	.	.
8A\J	.	(16f/	.	.	8A\J	.	8cc/J
*	*	*custos:d	*custos:a	*	*	*	*
.	.	16e/JJ)	16aa\	.	.	.	.
=5	=5	=5	=5	=5	=5	=5	=5
!	!	!LO:LB:g=original	!LO:LB:g=original	!LO:TX:a:t=1	!	!	!LO:LB:g=original
8r	.	16d/	(16aa\LL	1r	8r	8a/L]	[2dd\
.	.	8dd\	16gg\)	.	.	.	.
8BB-/L	x 7	.	(16ff\	.	8BB-/L	8d/	.
.	.	8dd\	16ee\JJ)	.	.	.	.
8C/	.	.	(16dd\LL	.	8C/	8e/	.
.	.	8dd\	16cc\)	.	.	.	.
8D/J	.	.	(16b-\	.	8D/J	8f/J	.
.	.	16dd\	16a\JJ)	.	.	.	.
!	!	!	!	!	!LO:LB:g=original	!	!LO:TX:a:t=P:problem=mixedbeam
8r	.	(16dd\LL	16g/	.	8r	2g/	8dd\L]
.	.	16cc\)	8gg\	.	.	.	.
8E\L	x 7	(16b-\	.	.	8E\L	.	8g/
.	.	16a\JJ)	8gg\	.	.	.	.
8F\	.	(16g/LL	.	.	8F\	.	8a/
.	.	16f/)	8gg\	.	.	.	.
8G\J	.	(16e/	.	.	8G\J	.	8b-/J
.	.	16d/JJ)	16gg\	.	.	.	.
=6	=6	=6	=6	=6	=6	=6	=6
!LO:LB:g=original	!	!	!	!	!	!	!
2AA/	7 #	16c#X/	(16gg\LL	2r	2AA/	4e/	4a/
.	.	8cc#X\	16ff\)	.	.	.	.
.	.	.	(16ee\	.	.	.	.
.	.	8cc#\	16dd\JJ)	.	.	.	.
.	.	.	16cc#X\LL|	.	.	8r	8r
.	.	8cc#\	(16bb-\	.	.	.	.
.	.	.	16aa\)	.	.	8ee\	8gg\
.	.	16cc#\	16gg\JJ|	.	.	.	.
!LO:TX:a:t=P:problem=mixedbeam	!	!	!LO:TUP:a:problem=klamra łukowa	!	!LO:TX:a:t=P:problem=mixedbeam	!	!LO:TUP:a:problem=klamra łukowa
8A\L	6 4	(32dd\KLL	24ff\LL	4a\	8A\L	(32dd\KLL	24ff\LL
.	.	16.a\JJ)	.	.	.	16.a\JJ)	.
.	.	.	24ee\	.	.	.	24ee\
.	.	.	24ff\JJ	.	.	.	24ff\JJ
!	!	!	!LO:TUP:a:problem=klamra łukowa	!	!	!	!LO:TUP:a:problem=klamra łukowa
8G\	6 5	(32b-/KLL	24gg\LL	.	8G\	(32b-/KLL	24gg\LL
.	.	16.g/JJ)	.	.	.	16.g/JJ)	.
.	.	.	24ff\	.	.	.	24ff\
.	.	.	24ee\JJ	.	.	.	24ee\JJ
8A\	6 4	8f/L	8dd\L	4a\	8A\	8f/L	8dd\L
!	!	!LO:TX:a:t=t	!LO:TX:a:t=t.	!	!	!LO:TX:a:t=t.	!LO:TX:a:t=t.
8AA/J	5 #	8e/J	8cc#X\J	.	8AA/J	8e/J	8cc#X\J
=7	=7	=7	=7	=7	=7	=7	=7
!	!	!	!	!LO:LB:g=original	!	!LO:LB:g=original	!
.	.	8qqe/	.	.	.	.	.
4D/	.	4f/	4dd\	4a\	4D/	4f/	16dd\LL|
!	!	!	!	!	!	!	!LO:TX:b:t=solo.
.	.	.	.	.	.	.	(16aa\
.	.	.	.	.	.	.	16bb-\)
.	.	.	.	.	.	.	(16gg#X\JJ
4r	.	4r	4r	4r	4r	4r	16aa\LL)
.	.	.	.	.	.	.	(16ee\
.	.	.	.	.	.	.	16ff\)
.	.	.	.	.	.	.	(16cc#X\JJ
!	!	!	!	!	!	!	!LO:TX:a:t=P:problem=mixedbeam
16.r	.	16.r	16.r	2r	16.r	16.r	16.dd\LL)
!LO:TX:b:t=Uniſsons	!	!	!	!	!	!	!
32A\KLL	.	32a/KLL	32a/KLL	.	32A\KLL	32a/KLL	32a/K|<
16.B-\	.	16.b-/	16.b-/	.	16.B-\	16.b-/	16.b-/|<
32G#X\JJk	.	32g#X/JJk	32g#X/JJk	.	32G#X\JJk	32g#X/JJk	32g#X/JJk
16.A\LL	.	16.a/LL	16.a/LL	.	16.A\LL	8a/	8a/
32E\K	.	32e/K	32e/K	.	32E\K	.	.
16.F\	.	16.f/	16.f/	.	16.F\	8r	8r
32C#X\JJk	.	32c#X/JJk	32c#X/JJk	.	32C#X\JJk	.	.
=8	=8	=8	=8	=8	=8	=8	=8
16.D/LL	.	16.d/LL	16.d/LL	4r	16.D/LL	4r	4r
32AA/JJk	.	32A/K	32A/K	.	32AA/K	.	.
16.BB-/LL	.	16.B-/	16.B-/	.	16.BB-/	.	.
32G#X/JJk	.	32G#X/JJk	32G#X/JJk	.	32G#X/JJk	.	.
.	.	.	.	.	.	.	(16qqdd\LL
!LO:TX:a:t=P:problem=mixedbeam	!	!	!	!	!LO:TX:a:t=P:problem=mixedbeam	!LO:TX:a:t=t.	!LO:TX:a:t=t.
.	.	.	.	.	.	.	16qqee\JJ)
8A\L	x #	16.A/LL	16.A/LL	8.a\L	8A\L	4cc#X\	4ee\
.	.	32gn/K	32gn/K	.	.	.	.
8AA/J	.	16.e/	16.e/	.	8AA/J	.	.
.	.	.	.	16a\Jk	.	.	.
.	.	32c#X/JJk	32c#X/JJk	.	.	.	.
!	!	!LO:LB:g=original	!LO:LB:g=original	!	!	!	!LO:LB:g=original
4DD;</	.	4d;</	4d;</	4a;\	4DD;</	4dd;\	4dd;\
4r	.	4r	4r	8r	4r	4r	4r
!	!	!	!	!LO:TX:a:t=Solo.	!	!	!
.	.	.	.	32r	.	.	.
.	.	.	.	32f\LLL	.	.	.
.	.	.	.	32a\	.	.	.
.	.	.	.	32cc\JJJ	.	.	.
=9||	=9||	=9||	=9||	=9||	=9||	=9||	=9||
!	!	!LO:TX:a:t=2.	!LO:TX:a:t=1.	!	!	!	!
4F\	.	0r	1r	8.ff\L	4F\	2r	2r
.	.	.	.	16cc\Jk	.	.	.
!	!	!	!	!LO:TX:a:t=t.	!	!	!
4E\	x 6	.	.	8.cc\L	4E\	.	.
.	.	.	.	16b-\Jk	.	.	.
8.F\L	.	.	.	4a\	8.F\L	8.a/L	8.cc\L
16G\K	.	.	.	.	16G\K	16g/K	16b-\Jk
8.A\	x 6	.	.	8r	8.A\	8.f/	8.a\L
.	.	.	.	32r	.	.	.
.	.	.	.	32f\LLL	.	.	.
16F\Jk	.	.	.	32g\	16F\Jk	16a/Jk	16cc\Jk
.	.	.	.	32a\JJJ	.	.	.
=10	=10	=10	=10	=10	=10	=10	=10
.	.	.	.	.	.	8qqa/	8qqcc/
!LO:LB:g=original	!	!	!	!	!LO:LB:g=original	!	!
4c\	x 7	.	2r	8.g\L	4c\	4g/	4b-/
.	.	.	.	16b-\Jk	.	.	.
.	.	.	.	8qqb-/	.	.	.
4C/	6 4	.	.	8.a\L	4C/	8r	8r
.	.	.	.	.	.	32r	32r
.	.	.	.	.	.	32e/LLL	32g/LLL
.	.	.	.	16g\Jk	.	32f/	32a/
.	.	.	.	.	.	32g/JJJ	32b-/JJJ
.	.	.	.	8qqg/	.	.	.
4F\	5 3	.	4r	4a\	4F\	(16f/LL	(16a/LL
.	.	.	.	.	.	16g/)	16b-/)
.	.	.	.	.	.	(16a/	(16cc/
.	.	.	.	.	.	16b-/JJ)	16dd/JJ)
4r	.	.	8r	4r	4r	8cc\L	8ee-X\L
.	.	.	32r	.	.	8cc\J	8ee-\J
.	.	.	32ff\LLL	.	.	.	.
.	.	.	32gg\	.	.	.	.
.	.	.	32aa\JJJ	.	.	.	.
=11	=11	=11	=11	=11	=11	=11	=11
!	!	!	!	!LO:LB:g=original	!	!	!LO:SIC:v:s=8qqee-/
.	.	.	.	.	.	.	8qqee/
4BB-/	.	4dd\|	8.bb-\L	4f\	4BB-/	4b-/	4dd\
.	.	.	16ff\Jk	.	.	.	.
!	!	!	!LO:TX:a:t=t.	!	!	!	!
4AA/	6 5-	4cc\|	8.ff\L	8.f\L	4AA/	4r	4r
.	.	.	16ee-X\Jk	16f\Jk	.	.	.
.	.	.	8qqee-/	.	.	.	.
8.BB-/L	.	8.dd\L	4dd\	4f\	8.BB-/L	8.dd\L	4r
16C/K	.	16ee-X\K	.	.	16C/K	16ee-X\K	.
8.D/	x 6	8.ff\	8r	4r	8.D/	8.ff\	8r
.	.	.	32r	.	.	.	32r
.	.	.	32b-\LLL	.	.	.	32b-\LLL
16BB-/Jk	.	16dd\Jk	32cc\	.	16BB-/Jk	16dd\Jk	32cc\
.	.	.	32dd\JJJ	.	.	.	32dd\JJJ
=12	=12	=12	=12	=12	=12	=12	=12
!	!	!	!	!	!	!LO:LB:g=original	!
8.E-X\L	x 6	8.g/L	8.cc\L	4r	8.E-X\L	8.g/L	8.cc\L
16C\Jk	.	16cc/Jk	16ee-X\Jk	.	16C\Jk	16cc/Jk	16ee-X\Jk
!LO:TX:a:t=P:problem=mixedbeam	!	!	!LO:TX:a:t=t	!	!LO:TX:a:t=P:problem=mixedbeam	!LO:TX:a:t=t.	!
.	.	8qqcc/	8qqee-/	.	.	8qqcc/	.
8.F/L	6 4	8.b-/L	8.dd\L	8.f\L	8.F\L	8.b-/L	8.dd\L
16FF/Jk	5 3	16a/Jk	16cc\Jk	16f\Jk	16FF/Jk	16a/Jk	16cc\Jk
!	!	!	!	!	!	!	!LO:LB:g=original
.	.	.	8qqcc/	.	.	.	8qqcc/
4BB-/	.	8b-/L	4dd\	4f\	4BB-/	8b-/L	4dd\
.	.	32r	.	.	.	32r	.
.	.	32cc/LL	.	.	.	32cc/LL	.
.	.	32b-/	.	.	.	32b-/	.
.	.	32a/JJJ	.	.	.	32a/JJJ	.
4E-X\	.	[4g/	8r	4r	4E-X\	[4g/	8r
.	.	.	32r	.	.	.	32r
.	.	.	32g/LLL	.	.	.	32g/LLL
.	.	.	32a/	.	.	.	32a/
.	.	.	32b-/JJJ	.	.	.	32b-/JJJ
=13	=13	=13	=13	=13	=13	=13	=13
!	!	!	!	!LO:TX:a:t=5.	!	!	!
8.C/L	6 5-r	4g/]	8.a/L	00r	8.C/L	4.g/]	8.a/L
16AA/Jk	.	.	16cc/Jk	.	16AA/Jk	.	16cc/K
!	!	!LO:TX:a:t=t.	!LO:TX:a:t=t.	!	!LO:TX:a:t=P:problem=mixedbeam	!	!
.	.	.	8qqcc/	.	.	.	8qqcc/
8.D/L	6 4	4f#X/	8.b-/L	.	8.D\L	.	8.b-/
!	!	!	!	!	!	!LO:TX:a:t=t.	!
.	.	.	.	.	.	8f#X/	.
16DD/Jk	5 #	.	16a/Jk	.	16DD/Jk	.	16a/Jk
.	.	.	8qqa/	.	.	.	8qqa/
4GG/	.	[4g/	4b-/	.	4GG/	4g/	4b-/
4r	.	16g/LL]	4r	.	4r	4r	4r
.	.	16f#X/	.	.	.	.	.
.	.	16g/	.	.	.	.	.
.	.	16a/JJ	.	.	.	.	.
=14	=14	=14	=14	=14	=14	=14	=14
!LO:LB:g=original	!	!	!	!	!LO:LB:g=original	!	!
8r	.	16b-\	4r	.	8r	8r	2r
.	.	8bb-\	.	.	.	.	.
8G\L	.	.	.	.	8G\L	8b-\L	.
.	.	8bb-\	.	.	.	.	.
8A\	.	.	16r	.	8A\	8cc\	.
.	.	8bb-\	16b-\LL	.	.	.	.
8B-\J	x 6	.	16cc\	.	8B-\J	8dd\J	.
.	.	16bb-\	16dd\JJ	.	.	.	.
!	!	!LO:LB:g=original	!LO:LB:g=original	!	!	!	!
8r	.	(16bb-\LL	16ee-X\	.	8r	[2ee-X\	8r
.	.	16aa\)	8ee-\	.	.	.	.
8C/L	7 -	(16gg\	.	.	8C/L	.	8ee-X\L
.	.	16ff\JJ)	8ee-\	.	.	.	.
8D/	.	(16ee-X\LL	.	.	8D/	.	8ff\
.	.	16dd\)	8ee-\	.	.	.	.
8E-X/J	.	(16cc\	.	.	8E-X/J	.	8gg\J
.	.	16b-\JJ)	16ee-\	.	.	.	.
=15	=15	=15	=15	=15	=15	=15	=15
8r	.	16a/	(16ee\LL	.	8r	8ee-\L]	[2aa\
.	.	8aa\	16dd\)	.	.	.	.
8F\L	x 7-r	.	(16cc\	.	8F\L	8a\	.
.	.	8aa\	16b-\JJ)	.	.	.	.
8G\	.	.	(16a/LL	.	8G\	8b-\	.
.	.	8aa\	16g/)	.	.	.	.
8A\J	.	.	(16f/	.	8A\J	8cc\J	.
.	.	16aa\	16e-X/JJ)	.	.	.	.
8r	.	(16aa\LL	16d/	.	8r	[2dd\	8aa\L]
.	.	16gg\)	8dd\	.	.	.	.
8BB-/L	x 7	(16ff\	.	.	8BB-/L	.	8dd\
.	.	16ee-X\JJ)	8dd\	.	.	.	.
8C/	.	(16dd\LL	.	.	8C/	.	8ee-X\
.	.	16cc\)	8dd\	.	.	.	.
8D/J	.	(16b-\	.	.	8D/J	.	8ff\J
.	.	16a\JJ)	16dd\	.	.	.	.
=16	=16	=16	=16	=16	=16	=16	=16
8r	.	16g/	(16dd\LL	.	8r	8dd\L]	[2gg\
.	.	8gg\	16cc\)	.	.	.	.
8E-X\L	x 7	.	(16b-\	.	8E-X\L	8g\	.
.	.	8gg\	16a\JJ)	.	.	.	.
8F\	.	.	(16g/LL	.	8F\	8a\	.
.	.	8gg\	16f/)	.	.	.	.
8G\J	.	.	(16e-X/	.	8G\J	8b-\J	.
.	.	16gg\	16d/JJ)	.	.	.	.
8r	.	(16gg\LL	16c/	.	8r	2cc\	8gg\L]
.	.	16ff\)	8cc\	.	.	.	.
8AA/L	x 7	(16ee-X\	.	.	8AA/L	.	8cc\
.	.	16dd\JJ)	8cc\	.	.	.	.
8BB-/	.	(16cc\LL	.	.	8BB-/	.	8dd\
.	.	16b-\)	8cc\	.	.	.	.
8C/J	.	(16a\	.	.	8C/J	.	8ee-X\J
.	.	16g\JJ)	16cc\	.	.	.	.
=17	=17	=17	=17	=17	=17	=17	=17
*custos:d	*	*	*	*	*custos:d	*	*
!	!	!LO:LB:g=original	!	!	!	!	!
2D/	7 #	16f#X/	(16cc\LL	1r	2D/	4a/	4dd\
.	.	8f#/	16b-\)	.	.	.	.
.	.	.	(16a\	.	.	.	.
.	.	8f#/	16g\JJ)	.	.	.	.
!	!	!	!LO:TX:a:t=P:problem=mixedbeam	!	!	!	!
.	.	.	16f#X/LL|<	.	.	8r	8r
.	.	8f#/	(16ee-X\	.	.	.	.
.	.	.	16dd\)	.	.	8a/	8cc\
.	.	16f#/	16cc\JJ|	.	.	.	.
!LO:TX:a:t=P:problem=mixedbeam	!	!	!LO:TUP:b:problem=klamra łukowa	!	!LO:TX:a:t=P:problem=mixedbeam	!	!LO:TUP:b:problem=klamra łukowa
!LO:LB:g=original	!	!	!	!	!LO:LB:g=original	!	!LO:LB:g=original
8d\L	6 4	(32g/KLL	24b-/LL	.	8d\L	(32g/LL	24b-/LL
.	.	16.d/JJ)	.	.	.	16.d/J)	.
.	.	.	24a/	.	.	.	24a/
.	.	.	24b-/JJ	.	.	.	24b-/JJ
!	!	!	!LO:TUP:a:problem=klamra łukowa	!	!	!	!LO:TUP:b:problem=klamra łukowa
8c\	6 5	(32e-X/KLL	24cc\LL	.	8c\	8e-X/J	24cc/LL
.	.	16.c/JJ)	.	.	.	.	.
.	.	.	24b-\	.	.	.	24b-/
.	.	.	24a\JJ	.	.	.	24a/JJ
8d\	6 4	8B-/L	8g/L	.	8d\	8d/L	8g/L
!	!	!LO:TX:a:t=t	!LO:TX:a:t=t.	!	!	!	!LO:TX:a:t=t
8D/J	5 #	8A/J	8f#X/J	.	8D/J	8d/J	8f#X/J
=18	=18	=18	=18	=18	=18	=18	=18
!	!	!	!LO:LB:g=original	!	!	!LO:LB:g=original	!
8.G\L	.	4B-/	4g/	8r	8.G\L	4d/	4g/
!	!	!	!	!LO:TX:b:t=solo.	!	!	!
.	.	.	.	8b-\L	.	.	.
16A\K	.	.	.	.	16A\K	.	.
8.G\	.	4r	4r	8b-\	8.G\	4r	4r
.	.	.	.	[8b-\J	.	.	.
16F\Jk	.	.	.	.	16F\Jk	.	.
4En\	6 5	2r	2r	8b-\L]	4En\	2r	2r
.	.	.	.	16cc\L	.	.	.
.	.	.	.	16b-\JJ	.	.	.
4C/	6 4	.	.	8a\L	4C/	.	.
.	5 3	.	.	8g\J	.	.	.
=19	=19	=19	=19	=19	=19	=19	=19
!	!	!LO:TX:a:t=4.	!LO:TX:a:t=3.	!	!	!	!
.	.	.	.	8qqg/	.	.	.
8.F\L	.	00r	0r	4a\	8.F\L	8r	8r
!	!	!	!	!	!	!	!LO:TX:b:t=sol.
.	.	.	.	.	.	8ff\L	8aa\L
16G\K	.	.	.	.	16G\K	.	.
!	!	!	!	!	!	!LO:TX:b:t=Solo.	!
8.F\	.	.	.	4r	8.F\	8ff\	8aa\
.	.	.	.	.	.	[8ff\J	[8aa\J
16E\Jk	.	.	.	.	16E\Jk	.	.
!	!	!	!	!LO:LB:g=original	!	!	!
4D/	6 5	.	.	2r	4D/	8ff\L]	8aa\L]
.	.	.	.	.	.	16gg\L	16bb-\L
.	.	.	.	.	.	16ff\JJ	16aa\JJ
4BB-/	6 4	.	.	.	4BB-/	8ee\L	8gg\L
.	5 3	.	.	.	.	8dd\J	8ff\J
=20	=20	=20	=20	=20	=20	=20	=20
!	!	!	!	!LO:TX:a:t=3.	!	!	!
8.E\L	.	.	.	0r	8.E\L	8r	8r
.	.	.	.	.	.	>8ee\	8gg\
16F\K	.	.	.	.	16F\K	.	.
!	!	!	!	!	!	!	!LO:TX:a:t=t.
8.E\	.	.	.	.	8.E\	[4eet\	[4gg\
16D\Jk	.	.	.	.	16D\Jk	.	.
4C#X/	6 5	.	.	.	4C#X/	16ee\LL]	16gg\LL]
.	.	.	.	.	.	16gg\	16bb-\
.	.	.	.	.	.	16ff\	16aa\
.	.	.	.	.	.	16ee\JJ	16gg\JJ
4AA/	6 4	.	.	.	4AA/	8dd\L	8ff\L
.	5 #	.	.	.	.	8cc#X\J	8ee\J
=21	=21	=21	=21	=21	=21	=21	=21
!LO:LB:g=original	!	!	!	!	!	!	!
8r	.	.	1r	.	8r	8r	(16dd\LL
.	.	.	.	.	.	.	16b-\JJ)
8BB-/L	X 6\	.	.	.	8BB-/L	8dd\L	16a/LL
.	.	.	.	.	.	.	16g#X/JJ
8BB-/	.	.	.	.	8BB-/	8dd\	8g#/L
8BB-/J	.	.	.	.	8BB-/J	8dd\J	8g#/J
8r	.	.	.	.	8r	8r	(16a/LL
.	.	.	.	.	.	.	16g#X/J)
.	.	.	.	.	.	.	8qqg#/
8AA/L	x #	.	.	.	8AA/L	8cc#X\	8.a/J
!	!	!	!	!	!	!LO:TX:a:t=t.	!
8AA/	.	.	.	.	8AA/	4cc#\	.
.	.	.	.	.	.	.	(16bb-\LL
8AA/J	.	.	.	.	8AA/J	.	16aa\)
.	.	.	.	.	.	.	16cc#X\JJ|
=22	=22	=22	=22	=22	=22	=22	=22
!	!	!	!	!	!LO:LB:g=original	!	!
4BB-/|	x 6\	.	2r	1r	4BB-/|	8r	16dd\LL|
.	.	.	.	.	.	.	16b-\JJ|
.	.	.	.	.	.	8dd\	(16a/LL
.	.	.	.	.	.	.	16g#X/)
!	!	!	!	!	!	!LO:TX:a:t=t.	!
4BB-/|	.	.	.	.	4BB-/|	4dd\	(16a/
.	.	.	.	.	.	.	16g#/)
.	.	.	.	.	.	.	(16a/
.	.	.	.	.	.	.	16g#/JJ)
!LO:TX:a:t=P:problem=mixedbeam	!	!	!	!	!LO:TX:a:t=P:problem=mixedbeam	!	!
.	.	.	.	.	.	.	8qqg#/
8.AA/L	x #	.	4r	.	8.AA/L	4cc#X\	4a/
16G\Jk	.	.	.	.	16G\K	.	.
8.F\L	x 6	.	8r	.	8.F\	4r	8r
.	.	.	32r	.	.	.	32r
.	.	.	32d/LLL	.	.	.	32d/LLL
!LO:TX:a:t=Da Capo [segno] fino al [fermata]	!	!	!	!	!	!	!
16E\Jk	.	.	32f/	.	16E\Jk	.	32f/
.	.	.	32a/JJJ	.	.	.	32a/JJJ
!	!	!LO:TX:b:t=Da Capo fino al [fermata]	!LO:TX:a:t=[segno] Da Capo fino al [fermata]	!LO:TX:a:t=Da Capo fino al [fermata]	!LO:TX:a:t=Da Capo Sino al [fermata]	!LO:TX:a:t=[segno] Da Capo\nfino al [fermata]	!LO:TX:b:t=Da Capo fino al [fermata]:rj
==	==	==	==	==	==	==	==
*-	*-	*-	*-	*-	*-	*-	*-
!!!system-decoration: [(s1,s2,s3)]s4[(s5,s6)]s7
!!!RDF**kern: > = above
!!!RDF**kern: < = below
!!!RDF**kern: | = vertical stroke
!!!ENC: Berenika Jozajtis
!!!END: 2022-02-14
!!!ENC: Krzysztof Stępień
!!!END: 2022-02-21
!!!YEC: Copyright 2022 Narodowy Instytut Fryderyka Chopina (https://polishscores.org)
!!!YEM: License CC-BY-4.0 (https://creativecommons.org/licenses/by/4.0)
